border-outside.svg

<svg fill="currentColor" viewBox="0 0 24 24"><path d="M9 11H7v2h2m4 2h-2v2h2m6 2H5V5h14M3 21h18V3H3m14 8h-2v2h2m-4-2h-2v2h2m0-6h-2v2h2z"/></svg>

<svg  viewBox="0 0 24 24" fill="currentColor"><path  d="M9,11H7V13H9M13,15H11V17H13M19,19H5V5H19M3,21H21V3H3M17,11H15V13H17M13,11H11V13H13M13,7H11V9H13V7Z"/></svg>
